X: 23338
T: Leipheim
R: jig
M: 6/8
K: Dmixolydian
|:dcA AGE|EAD DFA|dcA AGE|G3 B/c/de|
dcA AGE|EAD DAG|F2A GEA|D3 DFA:|
|:d2A dfe|dcA AGE|DFA dcA|c3 Gce|
d2A dfe|dc/B/A AGE|AcA GEA|1 D3 DFA:|2 D3 D2d||
|:dc/B/A AGE|EAD DFA|dcA AGE|G3 B/c/de|
dcA AGE|EAD DAG|F2A GEA|D3 DFA:|
|:d2A dfe|dc/B/A AGE|D.F/.G/A dcA|EGc EGc|
d2A eAf|dcA AGE|AcA GEA|1 D3 DFA:|2 D3 D2d||

